X: 4633
T: Bower, The
R: reel
M: 4/4
K: Adorian
|:"Am"A2"G"BG "Am"AE~E2|"G"G2Bd "Em"edBG|"Am"A2"G"BG "Am"ABcd|"Em"eBde gedB|
"Am"A2"G"BG "Am"AE~E2|"G"G2Bd "Em"efga|bage "G"d2Bd|egdB "Am"BAA2:|
|:"Am"a2ga "Em"bage|"G"dG~G2 dGBd|"Am"a2ga "Em"bage|"G"dega "Am"baa2|
"Am"a2ga "Em"bage|"G"dG~G2 d3g|"Em"bage"G" d2Bd|"Em"egdB "Am"BAA2:|

